X:18916
T:Woods Hornpipe. JC.246
M:C
L:1/8
Q:190
S:John Clare,Poet,Helpstone (1793-1864)
R:Hornpipe
O:England241
A:Northamptonshire
Z:Phil Headford
K:G
((3DEF)|G2G2G2Bc|dBdg dBAG|edcB cBAG|FGABA2DE/F/|!
G2G2G2Bc|dBdg dBAG|edcB cBAG|D2G2G2:|!:Bc|
dBdg dBdg|eceg eceg|edcB cBAG|FGABA2Bc|!
dBdg dBdg|eceg eceg|gfed cBAG|D2G2G2:|]


